Joker_SonyA6400_PP5_Rec709_Look (1).cube
TITLE "Joker Sony A6400 PP5 Rec709 Look"
LUT_3D_SIZE 9
0.000000 0.049000 0.094000
0.041798 0.049947 0.093713
0.177274 0.051948 0.093151
0.312737 0.053978 0.092644
0.448186 0.056038 0.092195
0.583621 0.058129 0.091806
0.719040 0.060252 0.091479
0.854442 0.062411 0.091219
0.919194 0.063456 0.091119
0.000000 0.111822 0.093713
0.044717 0.112776 0.093437
0.180188 0.114791 0.092902
0.315644 0.116834 0.092422
0.451086 0.118909 0.092001
0.586513 0.121015 0.091642
0.721925 0.123155 0.091346
0.857319 0.125331 0.091119
0.922067 0.126384 0.091035
0.000000 0.243198 0.093151
0.050813 0.244166 0.092902
0.186269 0.246209 0.092422
0.321711 0.248284 0.092001
0.457138 0.250390 0.091642
0.592550 0.252530 0.091346
0.727944 0.254706 0.091119
0.863322 0.256918 0.090963
0.928575 0.258129 0.090679
0.000000 0.374603 0.092644
0.056894 0.375584 0.092422
0.192336 0.377659 0.092001
0.327763 0.379765 0.091642
0.463175 0.381905 0.091346
0.598569 0.384081 0.091119
0.733947 0.386293 0.090963
0.872902 0.389518 0.089231
0.940459 0.391374 0.087922
0.000000 0.506038 0.092195
0.062961 0.507034 0.092001
0.198388 0.509140 0.091642
0.333800 0.511280 0.091346
0.469194 0.513456 0.091119
0.604572 0.515668 0.090963
0.743527 0.518893 0.089231
0.884776 0.522785 0.086517
0.952322 0.524662 0.085249
0.004246 0.637504 0.091806
0.069013 0.638515 0.091642
0.204425 0.640655 0.091346
0.339819 0.642831 0.091119
0.475197 0.645043 0.090963
0.614152 0.648268 0.089231
0.755401 0.652160 0.086517
0.896628 0.656097 0.083890
0.964163 0.657997 0.082667
0.010290 0.769002 0.091479
0.075050 0.770030 0.091346
0.210444 0.772206 0.091119
0.345822 0.774418 0.090963
0.484777 0.777643 0.089231
0.626026 0.781535 0.086517
0.767253 0.785472 0.083890
0.908457 0.789458 0.081357
0.975981 0.791383 0.080182
0.016317 0.900536 0.091219
0.081069 0.901581 0.091119
0.216447 0.903793 0.090963
0.355402 0.907018 0.089231
0.496651 0.910910 0.086517
0.637878 0.914847 0.083890
0.779082 0.918833 0.081357
0.920261 0.922873 0.078927
0.987772 0.924825 0.077804
0.019194 0.963456 0.091119
0.083942 0.964509 0.091035
0.219825 0.966879 0.090679
0.361084 0.970749 0.087922
0.502322 0.974662 0.085249
0.643538 0.978622 0.082667
0.784731 0.982633 0.080182
0.925897 0.986700 0.077804
0.993401 0.988667 0.076708
0.000000 0.049947 0.155588
0.044717 0.050901 0.155312
0.180188 0.052916 0.154777
0.315644 0.054959 0.154297
0.451086 0.057034 0.153876
0.586513 0.059140 0.153517
0.721925 0.061280 0.153221
0.857319 0.063456 0.152994
0.922067 0.064509 0.152910
0.000000 0.112776 0.155312
0.047634 0.113736 0.155049
0.183098 0.115764 0.154540
0.318548 0.117823 0.154088
0.453983 0.119912 0.153696
0.589402 0.122034 0.153367
0.724806 0.124191 0.153104
0.860192 0.126384 0.152910
0.924936 0.127446 0.152843
0.000000 0.244166 0.154777
0.053723 0.245139 0.154540
0.189173 0.247198 0.154088
0.324608 0.249287 0.153696
0.460027 0.251409 0.153367
0.595431 0.253566 0.153104
0.730817 0.255759 0.152910
0.866700 0.258129 0.152554
0.934261 0.259975 0.151225
0.000000 0.375584 0.154297
0.059798 0.376573 0.154088
0.195233 0.378662 0.153696
0.330652 0.380784 0.153367
0.466056 0.382941 0.153104
0.601442 0.385134 0.152910
0.737325 0.387504 0.152554
0.878584 0.391374 0.149797
0.946135 0.393240 0.148508
0.001086 0.507034 0.153876
0.065858 0.508037 0.153696
0.201277 0.510159 0.153367
0.336681 0.512316 0.153104
0.472067 0.514509 0.152910
0.607950 0.516879 0.152554
0.749209 0.520749 0.149797
0.890447 0.524662 0.147124
0.957988 0.526550 0.145877
0.007138 0.638515 0.153517
0.071902 0.639534 0.153367
0.207306 0.641691 0.153104
0.342692 0.643884 0.152910
0.478575 0.646254 0.152554
0.619834 0.650124 0.149797
0.761072 0.654037 0.147124
0.902288 0.657997 0.144542
0.969818 0.659909 0.143340
0.013175 0.770030 0.153221
0.077931 0.771066 0.153104
0.213317 0.773259 0.152910
0.349200 0.775629 0.152554
0.490459 0.779499 0.149797
0.631697 0.783412 0.147124
0.772913 0.787372 0.144542
0.914106 0.791383 0.142057
0.981623 0.793321 0.140906
0.019194 0.901581 0.152994
0.083942 0.902634 0.152910
0.219825 0.905004 0.152554
0.361084 0.908874 0.149797
0.502322 0.912787 0.147124
0.643538 0.916747 0.144542
0.784731 0.920758 0.142057
0.925897 0.924825 0.139679
0.993401 0.926792 0.138583
0.022067 0.964509 0.152910
0.086811 0.965571 0.152843
0.225511 0.968725 0.151225
0.366760 0.972615 0.148508
0.507988 0.976550 0.145877
0.649193 0.980534 0.143340
0.790373 0.984571 0.140906
0.931526 0.988667 0.138583
0.999023 0.990648 0.137516
0.000000 0.051948 0.284401
0.050813 0.052916 0.284152
0.186269 0.054959 0.283672
0.321711 0.057034 0.283251
0.457138 0.059140 0.282892
0.592550 0.061280 0.282596
0.727944 0.063456 0.282369
0.863322 0.065668 0.282213
0.928575 0.066879 0.281929
0.000000 0.114791 0.284152
0.053723 0.115764 0.283915
0.189173 0.117823 0.283463
0.324608 0.119912 0.283071
0.460027 0.122034 0.282742
0.595431 0.124191 0.282479
0.730817 0.126384 0.282285
0.866700 0.128754 0.281929
0.934261 0.130600 0.280600
0.000000 0.246209 0.283672
0.059798 0.247198 0.283463
0.195233 0.249287 0.283071
0.330652 0.251409 0.282742
0.466056 0.253566 0.282479
0.601442 0.255759 0.282285
0.737325 0.258129 0.281929
0.878584 0.261999 0.279172
0.946135 0.263865 0.277883
0.001086 0.377659 0.283251
0.065858 0.378662 0.283071
0.201277 0.380784 0.282742
0.336681 0.382941 0.282479
0.472067 0.385134 0.282285
0.607950 0.387504 0.281929
0.749209 0.391374 0.279172
0.890447 0.395287 0.276499
0.957988 0.397175 0.275252
0.007138 0.509140 0.282892
0.071902 0.510159 0.282742
0.207306 0.512316 0.282479
0.342692 0.514509 0.282285
0.478575 0.516879 0.281929
0.619834 0.520749 0.279172
0.761072 0.524662 0.276499
0.902288 0.528622 0.273917
0.969818 0.530534 0.272715
0.013175 0.640655 0.282596
0.077931 0.641691 0.282479
0.213317 0.643884 0.282285
0.349200 0.646254 0.281929
0.490459 0.650124 0.279172
0.631697 0.654037 0.276499
0.772913 0.657997 0.273917
0.914106 0.662008 0.271432
0.981623 0.663946 0.270281
0.019194 0.772206 0.282369
0.083942 0.773259 0.282285
0.219825 0.775629 0.281929
0.361084 0.779499 0.279172
0.502322 0.783412 0.276499
0.643538 0.787372 0.273917
0.784731 0.791383 0.271432
0.925897 0.795450 0.269054
0.993401 0.797417 0.267958
0.025197 0.903793 0.282213
0.090450 0.905004 0.281929
0.231709 0.908874 0.279172
0.372947 0.912787 0.276499
0.514163 0.916747 0.273917
0.655356 0.920758 0.271432
0.796522 0.924825 0.269054
0.937659 0.928954 0.266795
1.000000 0.930953 0.265761
0.028575 0.966879 0.281929
0.096136 0.968725 0.280600
0.237385 0.972615 0.277883
0.378613 0.976550 0.275252
0.519818 0.980534 0.272715
0.660998 0.984571 0.270281
0.802151 0.988667 0.267958
0.943273 0.992828 0.265761
1.000000 0.994844 0.264759
0.000000 0.053978 0.413269
0.056894 0.054959 0.413047
0.192336 0.057034 0.412626
0.327763 0.059140 0.412267
0.463175 0.061280 0.411971
0.598569 0.063456 0.411744
0.733947 0.065668 0.411588
0.872902 0.068893 0.409856
0.940459 0.070749 0.408547
0.000000 0.116834 0.413047
0.059798 0.117823 0.412838
0.195233 0.119912 0.412446
0.330652 0.122034 0.412117
0.466056 0.124191 0.411854
0.601442 0.126384 0.411660
0.737325 0.128754 0.411304
0.878584 0.132624 0.408547
0.946135 0.134490 0.407258
0.001086 0.248284 0.412626
0.065858 0.249287 0.412446
0.201277 0.251409 0.412117
0.336681 0.253566 0.411854
0.472067 0.255759 0.411660
0.607950 0.258129 0.411304
0.749209 0.261999 0.408547
0.890447 0.265912 0.405874
0.957988 0.267800 0.404627
0.007138 0.379765 0.412267
0.071902 0.380784 0.412117
0.207306 0.382941 0.411854
0.342692 0.385134 0.411660
0.478575 0.387504 0.411304
0.619834 0.391374 0.408547
0.761072 0.395287 0.405874
0.902288 0.399247 0.403292
0.969818 0.401159 0.402090
0.013175 0.511280 0.411971
0.077931 0.512316 0.411854
0.213317 0.514509 0.411660
0.349200 0.516879 0.411304
0.490459 0.520749 0.408547
0.631697 0.524662 0.405874
0.772913 0.528622 0.403292
0.914106 0.532633 0.400807
0.981623 0.534571 0.399656
0.019194 0.642831 0.411744
0.083942 0.643884 0.411660
0.219825 0.646254 0.411304
0.361084 0.650124 0.408547
0.502322 0.654037 0.405874
0.643538 0.657997 0.403292
0.784731 0.662008 0.400807
0.925897 0.666075 0.398429
0.993401 0.668042 0.397333
0.025197 0.774418 0.411588
0.090450 0.775629 0.411304
0.231709 0.779499 0.408547
0.372947 0.783412 0.405874
0.514163 0.787372 0.403292
0.655356 0.791383 0.400807
0.796522 0.795450 0.398429
0.937659 0.799579 0.396170
1.000000 0.801578 0.395136
0.034777 0.907018 0.409856
0.102334 0.908874 0.408547
0.243572 0.912787 0.405874
0.384788 0.916747 0.403292
0.525981 0.920758 0.400807
0.667147 0.924825 0.398429
0.808284 0.928954 0.396170
0.949389 0.933153 0.394044
1.000000 0.935188 0.393080
0.040459 0.970749 0.408547
0.108010 0.972615 0.407258
0.249238 0.976550 0.404627
0.390443 0.980534 0.402090
0.531623 0.984571 0.399656
0.672776 0.988667 0.397333
0.813898 0.992828 0.395136
0.954986 0.997063 0.393080
1.000000 0.999118 0.392153
0.000000 0.056038 0.542195
0.062961 0.057034 0.542001
0.198388 0.059140 0.541642
0.333800 0.061280 0.541346
0.469194 0.063456 0.541119
0.604572 0.065668 0.540963
0.743527 0.068893 0.539231
0.884776 0.072785 0.536517
0.952322 0.074662 0.535249
0.001086 0.118909 0.542001
0.065858 0.119912 0.541821
0.201277 0.122034 0.541492
0.336681 0.124191 0.541229
0.472067 0.126384 0.541035
0.607950 0.128754 0.540679
0.749209 0.132624 0.537922
0.890447 0.136537 0.535249
0.957988 0.138425 0.534002
0.007138 0.250390 0.541642
0.071902 0.251409 0.541492
0.207306 0.253566 0.541229
0.342692 0.255759 0.541035
0.478575 0.258129 0.540679
0.619834 0.261999 0.537922
0.761072 0.265912 0.535249
0.902288 0.269872 0.532667
0.969818 0.271784 0.531465
0.013175 0.381905 0.541346
0.077931 0.382941 0.541229
0.213317 0.385134 0.541035
0.349200 0.387504 0.540679
0.490459 0.391374 0.537922
0.631697 0.395287 0.535249
0.772913 0.399247 0.532667
0.914106 0.403258 0.530182
0.981623 0.405196 0.529031
0.019194 0.513456 0.541119
0.083942 0.514509 0.541035
0.219825 0.516879 0.540679
0.361084 0.520749 0.537922
0.502322 0.524662 0.535249
0.643538 0.528622 0.532667
0.784731 0.532633 0.530182
0.925897 0.536700 0.527804
0.993401 0.538667 0.526708
0.025197 0.645043 0.540963
0.090450 0.646254 0.540679
0.231709 0.650124 0.537922
0.372947 0.654037 0.535249
0.514163 0.657997 0.532667
0.655356 0.662008 0.530182
0.796522 0.666075 0.527804
0.937659 0.670204 0.525545
1.000000 0.672203 0.524511
0.034777 0.777643 0.539231
0.102334 0.779499 0.537922
0.243572 0.783412 0.535249
0.384788 0.787372 0.532667
0.525981 0.791383 0.530182
0.667147 0.795450 0.527804
0.808284 0.799579 0.525545
0.949389 0.803778 0.523419
1.000000 0.805813 0.522455
0.046651 0.910910 0.536517
0.114197 0.912787 0.535249
0.255413 0.916747 0.532667
0.396606 0.920758 0.530182
0.537772 0.924825 0.527804
0.678909 0.928954 0.525545
0.820014 0.933153 0.523419
0.961081 0.937430 0.521446
1.000000 0.939508 0.520563
0.052322 0.974662 0.535249
0.119863 0.976550 0.534002
0.261068 0.980534 0.531465
0.402248 0.984571 0.529031
0.543401 0.988667 0.526708
0.684523 0.992828 0.524511
0.825611 0.997063 0.522455
0.966658 1.000000 0.520563
1.000000 1.000000 0.519726
0.004246 0.058129 0.671181
0.069013 0.059140 0.671017
0.204425 0.061280 0.670721
0.339819 0.063456 0.670494
0.475197 0.065668 0.670338
0.614152 0.068893 0.668606
0.755401 0.072785 0.665892
0.896628 0.076722 0.663265
0.964163 0.078622 0.662042
0.007138 0.121015 0.671017
0.071902 0.122034 0.670867
0.207306 0.124191 0.670604
0.342692 0.126384 0.670410
0.478575 0.128754 0.670054
0.619834 0.132624 0.667297
0.761072 0.136537 0.664624
0.902288 0.140497 0.662042
0.969818 0.142409 0.660840
0.013175 0.252530 0.670721
0.077931 0.253566 0.670604
0.213317 0.255759 0.670410
0.349200 0.258129 0.670054
0.490459 0.261999 0.667297
0.631697 0.265912 0.664624
0.772913 0.269872 0.662042
0.914106 0.273883 0.659557
0.981623 0.275821 0.658406
0.019194 0.384081 0.670494
0.083942 0.385134 0.670410
0.219825 0.387504 0.670054
0.361084 0.391374 0.667297
0.502322 0.395287 0.664624
0.643538 0.399247 0.662042
0.784731 0.403258 0.659557
0.925897 0.407325 0.657179
0.993401 0.409292 0.656083
0.025197 0.515668 0.670338
0.090450 0.516879 0.670054
0.231709 0.520749 0.667297
0.372947 0.524662 0.664624
0.514163 0.528622 0.662042
0.655356 0.532633 0.659557
0.796522 0.536700 0.657179
0.937659 0.540829 0.654920
1.000000 0.542828 0.653886
0.034777 0.648268 0.668606
0.102334 0.650124 0.667297
0.243572 0.654037 0.664624
0.384788 0.657997 0.662042
0.525981 0.662008 0.659557
0.667147 0.666075 0.657179
0.808284 0.670204 0.654920
0.949389 0.674403 0.652794
1.000000 0.676438 0.651830
0.046651 0.781535 0.665892
0.114197 0.783412 0.664624
0.255413 0.787372 0.662042
0.396606 0.791383 0.659557
0.537772 0.795450 0.657179
0.678909 0.799579 0.654920
0.820014 0.803778 0.652794
0.961081 0.808055 0.650821
1.000000 0.810133 0.649938
0.058503 0.914847 0.663265
0.126038 0.916747 0.662042
0.267231 0.920758 0.659557
0.408397 0.924825 0.657179
0.549534 0.928954 0.654920
0.690639 0.933153 0.652794
0.831706 0.937430 0.650821
0.972729 0.941802 0.649027
1.000000 0.943932 0.648245
0.064163 0.978622 0.662042
0.131693 0.980534 0.660840
0.272873 0.984571 0.658406
0.414026 0.988667 0.656083
0.555148 0.992828 0.653886
0.696236 0.997063 0.651830
0.837283 1.000000 0.649938
0.978282 1.000000 0.648245
1.000000 1.000000 0.647519
0.010290 0.060252 0.800229
0.075050 0.061280 0.800096
0.210444 0.063456 0.799869
0.345822 0.065668 0.799713
0.484777 0.068893 0.797981
0.626026 0.072785 0.795267
0.767253 0.076722 0.792640
0.908457 0.080708 0.790107
0.975981 0.082633 0.788932
0.013175 0.123155 0.800096
0.077931 0.124191 0.799979
0.213317 0.126384 0.799785
0.349200 0.128754 0.799429
0.490459 0.132624 0.796672
0.631697 0.136537 0.793999
0.772913 0.140497 0.791417
0.914106 0.144508 0.788932
0.981623 0.146446 0.787781
0.019194 0.254706 0.799869
0.083942 0.255759 0.799785
0.219825 0.258129 0.799429
0.361084 0.261999 0.796672
0.502322 0.265912 0.793999
0.643538 0.269872 0.791417
0.784731 0.273883 0.788932
0.925897 0.277950 0.786554
0.993401 0.279917 0.785458
0.025197 0.386293 0.799713
0.090450 0.387504 0.799429
0.231709 0.391374 0.796672
0.372947 0.395287 0.793999
0.514163 0.399247 0.791417
0.655356 0.403258 0.788932
0.796522 0.407325 0.786554
0.937659 0.411454 0.784295
1.000000 0.413453 0.783261
0.034777 0.518893 0.797981
0.102334 0.520749 0.796672
0.243572 0.524662 0.793999
0.384788 0.528622 0.791417
0.525981 0.532633 0.788932
0.667147 0.536700 0.786554
0.808284 0.540829 0.784295
0.949389 0.545028 0.782169
1.000000 0.547063 0.781205
0.046651 0.652160 0.795267
0.114197 0.654037 0.793999
0.255413 0.657997 0.791417
0.396606 0.662008 0.788932
0.537772 0.666075 0.786554
0.678909 0.670204 0.784295
0.820014 0.674403 0.782169
0.961081 0.678680 0.780196
1.000000 0.680758 0.779313
0.058503 0.785472 0.792640
0.126038 0.787372 0.791417
0.267231 0.791383 0.788932
0.408397 0.795450 0.786554
0.549534 0.799579 0.784295
0.690639 0.803778 0.782169
0.831706 0.808055 0.780196
0.972729 0.812427 0.778402
1.000000 0.814557 0.777620
0.070332 0.918833 0.790107
0.137856 0.920758 0.788932
0.279022 0.924825 0.786554
0.420159 0.928954 0.784295
0.561264 0.933153 0.782169
0.702331 0.937430 0.780196
0.843354 0.941802 0.778402
0.984323 0.946289 0.776831
1.000000 0.948486 0.776177
0.075981 0.982633 0.788932
0.143498 0.984571 0.787781
0.284651 0.988667 0.785458
0.425773 0.992828 0.783261
0.566861 0.997063 0.781205
0.707908 1.000000 0.779313
0.848907 1.000000 0.777620
0.989844 1.000000 0.776177
1.000000 1.000000 0.775602
0.016317 0.062411 0.929344
0.081069 0.063456 0.929244
0.216447 0.065668 0.929088
0.355402 0.068893 0.927356
0.496651 0.072785 0.924642
0.637878 0.076722 0.922015
0.779082 0.080708 0.919482
0.920261 0.084748 0.917052
0.987772 0.086700 0.915929
0.019194 0.125331 0.929244
0.083942 0.126384 0.929160
0.219825 0.128754 0.928804
0.361084 0.132624 0.926047
0.502322 0.136537 0.923374
0.643538 0.140497 0.920792
0.784731 0.144508 0.918307
0.925897 0.148575 0.915929
0.993401 0.150542 0.914833
0.025197 0.256918 0.929088
0.090450 0.258129 0.928804
0.231709 0.261999 0.926047
0.372947 0.265912 0.923374
0.514163 0.269872 0.920792
0.655356 0.273883 0.918307
0.796522 0.277950 0.915929
0.937659 0.282079 0.913670
1.000000 0.284078 0.912636
0.034777 0.389518 0.927356
0.102334 0.391374 0.926047
0.243572 0.395287 0.923374
0.384788 0.399247 0.920792
0.525981 0.403258 0.918307
0.667147 0.407325 0.915929
0.808284 0.411454 0.913670
0.949389 0.415653 0.911544
1.000000 0.417688 0.910580
0.046651 0.522785 0.924642
0.114197 0.524662 0.923374
0.255413 0.528622 0.920792
0.396606 0.532633 0.918307
0.537772 0.536700 0.915929
0.678909 0.540829 0.913670
0.820014 0.545028 0.911544
0.961081 0.549305 0.909571
1.000000 0.551383 0.908688
0.058503 0.656097 0.922015
0.126038 0.657997 0.920792
0.267231 0.662008 0.918307
0.408397 0.666075 0.915929
0.549534 0.670204 0.913670
0.690639 0.674403 0.911544
0.831706 0.678680 0.909571
0.972729 0.683052 0.907777
1.000000 0.685182 0.906995
0.070332 0.789458 0.919482
0.137856 0.791383 0.918307
0.279022 0.795450 0.915929
0.420159 0.799579 0.913670
0.561264 0.803778 0.911544
0.702331 0.808055 0.909571
0.843354 0.812427 0.907777
0.984323 0.816914 0.906206
1.000000 0.819111 0.905552
0.082136 0.922873 0.917052
0.149647 0.924825 0.915929
0.290784 0.928954 0.913670
0.431889 0.933153 0.911544
0.572956 0.937430 0.909571
0.713979 0.941802 0.907777
0.854948 0.946289 0.906206
0.995845 0.950930 0.904929
1.000000 0.953226 0.904465
0.087772 0.986700 0.915929
0.155276 0.988667 0.914833
0.296398 0.992828 0.912636
0.437486 0.997063 0.910580
0.578533 1.000000 0.908688
0.719532 1.000000 0.906995
0.860469 1.000000 0.905552
1.000000 1.000000 0.904465
1.000000 1.000000 0.904144
0.019194 0.063456 0.991119
0.083942 0.064509 0.991035
0.219825 0.066879 0.990679
0.361084 0.070749 0.987922
0.502322 0.074662 0.985249
0.643538 0.078622 0.982667
0.784731 0.082633 0.980182
0.925897 0.086700 0.977804
0.993401 0.088667 0.976708
0.022067 0.126384 0.991035
0.086811 0.127446 0.990968
0.225511 0.130600 0.989350
0.366760 0.134490 0.986633
0.507988 0.138425 0.984002
0.649193 0.142409 0.981465
0.790373 0.146446 0.979031
0.931526 0.150542 0.976708
0.999023 0.152523 0.975641
0.028575 0.258129 0.990679
0.096136 0.259975 0.989350
0.237385 0.263865 0.986633
0.378613 0.267800 0.984002
0.519818 0.271784 0.981465
0.660998 0.275821 0.979031
0.802151 0.279917 0.976708
0.943273 0.284078 0.974511
1.000000 0.286094 0.973509
0.040459 0.391374 0.987922
0.108010 0.393240 0.986633
0.249238 0.397175 0.984002
0.390443 0.401159 0.981465
0.531623 0.405196 0.979031
0.672776 0.409292 0.976708
0.813898 0.413453 0.974511
0.954986 0.417688 0.972455
1.000000 0.419743 0.971528
0.052322 0.524662 0.985249
0.119863 0.526550 0.984002
0.261068 0.530534 0.981465
0.402248 0.534571 0.979031
0.543401 0.538667 0.976708
0.684523 0.542828 0.974511
0.825611 0.547063 0.972455
0.966658 0.551383 0.970563
1.000000 0.553485 0.969726
0.064163 0.657997 0.982667
0.131693 0.659909 0.981465
0.272873 0.663946 0.979031
0.414026 0.668042 0.976708
0.555148 0.672203 0.974511
0.696236 0.676438 0.972455
0.837283 0.680758 0.970563
0.978282 0.685182 0.968870
1.000000 0.687341 0.968144
0.075981 0.791383 0.980182
0.143498 0.793321 0.979031
0.284651 0.797417 0.976708
0.425773 0.801578 0.974511
0.566861 0.805813 0.972455
0.707908 0.810133 0.970563
0.848907 0.814557 0.968870
0.989844 0.819111 0.967427
1.000000 0.821350 0.966852
0.087772 0.924825 0.977804
0.155276 0.926792 0.976708
0.296398 0.930953 0.974511
0.437486 0.935188 0.972455
0.578533 0.939508 0.970563
0.719532 0.943932 0.968870
0.860469 0.948486 0.967427
1.000000 0.953226 0.966340
1.000000 0.955597 0.966019
0.093401 0.988667 0.976708
0.160898 0.990648 0.975641
0.302005 0.994844 0.973509
0.443074 0.999118 0.971528
0.584099 1.000000 0.969726
0.725071 1.000000 0.968144
0.865971 1.000000 0.966852
1.000000 1.000000 0.966019
1.000000 1.000000 0.966000
