Joker_SonyA6400_PP5_Rec709_Look (1).cube
TITLE "Joker Sony A6400 PP5 Rec709 Look"
LUT_3D_SIZE 5
0.000000 0.049000 0.094000
0.177274 0.051948 0.093151
0.448186 0.056038 0.092195
0.719040 0.060252 0.091479
0.919194 0.063456 0.091119
0.000000 0.243198 0.093151
0.186269 0.246209 0.092422
0.457138 0.250390 0.091642
0.727944 0.254706 0.091119
0.928575 0.258129 0.090679
0.000000 0.506038 0.092195
0.198388 0.509140 0.091642
0.469194 0.513456 0.091119
0.743527 0.518893 0.089231
0.952322 0.524662 0.085249
0.010290 0.769002 0.091479
0.210444 0.772206 0.091119
0.484777 0.777643 0.089231
0.767253 0.785472 0.083890
0.975981 0.791383 0.080182
0.019194 0.963456 0.091119
0.219825 0.966879 0.090679
0.502322 0.974662 0.085249
0.784731 0.982633 0.080182
0.993401 0.988667 0.076708
0.000000 0.051948 0.284401
0.186269 0.054959 0.283672
0.457138 0.059140 0.282892
0.727944 0.063456 0.282369
0.928575 0.066879 0.281929
0.000000 0.246209 0.283672
0.195233 0.249287 0.283071
0.466056 0.253566 0.282479
0.737325 0.258129 0.281929
0.946135 0.263865 0.277883
0.007138 0.509140 0.282892
0.207306 0.512316 0.282479
0.478575 0.516879 0.281929
0.761072 0.524662 0.276499
0.969818 0.530534 0.272715
0.019194 0.772206 0.282369
0.219825 0.775629 0.281929
0.502322 0.783412 0.276499
0.784731 0.791383 0.271432
0.993401 0.797417 0.267958
0.028575 0.966879 0.281929
0.237385 0.972615 0.277883
0.519818 0.980534 0.272715
0.802151 0.988667 0.267958
1.000000 0.994844 0.264759
0.000000 0.056038 0.542195
0.198388 0.059140 0.541642
0.469194 0.063456 0.541119
0.743527 0.068893 0.539231
0.952322 0.074662 0.535249
0.007138 0.250390 0.541642
0.207306 0.253566 0.541229
0.478575 0.258129 0.540679
0.761072 0.265912 0.535249
0.969818 0.271784 0.531465
0.019194 0.513456 0.541119
0.219825 0.516879 0.540679
0.502322 0.524662 0.535249
0.784731 0.532633 0.530182
0.993401 0.538667 0.526708
0.034777 0.777643 0.539231
0.243572 0.783412 0.535249
0.525981 0.791383 0.530182
0.808284 0.799579 0.525545
1.000000 0.805813 0.522455
0.052322 0.974662 0.535249
0.261068 0.980534 0.531465
0.543401 0.988667 0.526708
0.825611 0.997063 0.522455
1.000000 1.000000 0.519726
0.010290 0.060252 0.800229
0.210444 0.063456 0.799869
0.484777 0.068893 0.797981
0.767253 0.076722 0.792640
0.975981 0.082633 0.788932
0.019194 0.254706 0.799869
0.219825 0.258129 0.799429
0.502322 0.265912 0.793999
0.784731 0.273883 0.788932
0.993401 0.279917 0.785458
0.034777 0.518893 0.797981
0.243572 0.524662 0.793999
0.525981 0.532633 0.788932
0.808284 0.540829 0.784295
1.000000 0.547063 0.781205
0.058503 0.785472 0.792640
0.267231 0.791383 0.788932
0.549534 0.799579 0.784295
0.831706 0.808055 0.780196
1.000000 0.814557 0.777620
0.075981 0.982633 0.788932
0.284651 0.988667 0.785458
0.566861 0.997063 0.781205
0.848907 1.000000 0.777620
1.000000 1.000000 0.775602
0.019194 0.063456 0.991119
0.219825 0.066879 0.990679
0.502322 0.074662 0.985249
0.784731 0.082633 0.980182
0.993401 0.088667 0.976708
0.028575 0.258129 0.990679
0.237385 0.263865 0.986633
0.519818 0.271784 0.981465
0.802151 0.279917 0.976708
1.000000 0.286094 0.973509
0.052322 0.524662 0.985249
0.261068 0.530534 0.981465
0.543401 0.538667 0.976708
0.825611 0.547063 0.972455
1.000000 0.553485 0.969726
0.075981 0.791383 0.980182
0.284651 0.797417 0.976708
0.566861 0.805813 0.972455
0.848907 0.814557 0.968870
1.000000 0.821350 0.966852
0.093401 0.988667 0.976708
0.302005 0.994844 0.973509
0.584099 1.000000 0.969726
0.865971 1.000000 0.966852
1.000000 1.000000 0.966000
