Joker_SonyA6400_PP5_Rec709_Look (1).cube
TITLE "Joker Sony A6400 PP5 Rec709 Look"
LUT_3D_SIZE 33
0.000000 0.049000 0.094000
0.000000 0.049000 0.094000
0.000000 0.049000 0.094000
0.007927 0.049451 0.093861
0.041798 0.049947 0.093713
0.075668 0.050445 0.093567
0.109538 0.050944 0.093425
0.143406 0.051445 0.093286
0.177274 0.051948 0.093151
0.211141 0.052453 0.093019
0.245007 0.052960 0.092891
0.278873 0.053468 0.092766
0.312737 0.053978 0.092644
0.346601 0.054490 0.092527
0.380464 0.055004 0.092412
0.414325 0.055520 0.092302
0.448186 0.056038 0.092195
0.482046 0.056558 0.092092
0.515905 0.057079 0.091993
0.549763 0.057603 0.091897
0.583621 0.058129 0.091806
0.617477 0.058657 0.091718
0.651332 0.059186 0.091634
0.685186 0.059718 0.091555
0.719040 0.060252 0.091479
0.752892 0.060789 0.091408
0.786743 0.061327 0.091341
0.820593 0.061868 0.091278
0.854442 0.062411 0.091219
0.888291 0.062956 0.091165
0.919194 0.063456 0.091119
0.919194 0.063456 0.091119
0.919194 0.063456 0.091119
0.000000 0.049000 0.094000
0.000000 0.049000 0.094000
0.000000 0.049000 0.094000
0.007927 0.049451 0.093861
0.041798 0.049947 0.093713
0.075668 0.050445 0.093567
0.109538 0.050944 0.093425
0.143406 0.051445 0.093286
0.177274 0.051948 0.093151
0.211141 0.052453 0.093019
0.245007 0.052960 0.092891
0.278873 0.053468 0.092766
0.312737 0.053978 0.092644
0.346601 0.054490 0.092527
0.380464 0.055004 0.092412
0.414325 0.055520 0.092302
0.448186 0.056038 0.092195
0.482046 0.056558 0.092092
0.515905 0.057079 0.091993
0.549763 0.057603 0.091897
0.583621 0.058129 0.091806
0.617477 0.058657 0.091718
0.651332 0.059186 0.091634
0.685186 0.059718 0.091555
0.719040 0.060252 0.091479
0.752892 0.060789 0.091408
0.786743 0.061327 0.091341
0.820593 0.061868 0.091278
0.854442 0.062411 0.091219
0.888291 0.062956 0.091165
0.919194 0.063456 0.091119
0.919194 0.063456 0.091119
0.919194 0.063456 0.091119
0.000000 0.049000 0.094000
0.000000 0.049000 0.094000
0.000000 0.049000 0.094000
0.007927 0.049451 0.093861
0.041798 0.049947 0.093713
0.075668 0.050445 0.093567
0.109538 0.050944 0.093425
0.143406 0.051445 0.093286
0.177274 0.051948 0.093151
0.211141 0.052453 0.093019
0.245007 0.052960 0.092891
0.278873 0.053468 0.092766
0.312737 0.053978 0.092644
0.346601 0.054490 0.092527
0.380464 0.055004 0.092412
0.414325 0.055520 0.092302
0.448186 0.056038 0.092195
0.482046 0.056558 0.092092
0.515905 0.057079 0.091993
0.549763 0.057603 0.091897
0.583621 0.058129 0.091806
0.617477 0.058657 0.091718
0.651332 0.059186 0.091634
0.685186 0.059718 0.091555
0.719040 0.060252 0.091479
0.752892 0.060789 0.091408
0.786743 0.061327 0.091341
0.820593 0.061868 0.091278
0.854442 0.062411 0.091219
0.888291 0.062956 0.091165
0.919194 0.063456 0.091119
0.919194 0.063456 0.091119
0.919194 0.063456 0.091119
0.000000 0.078983 0.093861
0.000000 0.078983 0.093861
0.000000 0.078983 0.093861
0.009321 0.079435 0.093725
0.043192 0.079933 0.093580
0.077061 0.080432 0.093437
0.110930 0.080933 0.093298
0.144798 0.081436 0.093163
0.178665 0.081940 0.093030
0.212531 0.082447 0.092902
0.246397 0.082955 0.092776
0.280261 0.083465 0.092655
0.314125 0.083977 0.092537
0.347988 0.084491 0.092422
0.381850 0.085006 0.092311
0.415711 0.085524 0.092204
0.449571 0.086044 0.092101
0.483430 0.086565 0.092001
0.517288 0.087089 0.091905
0.551145 0.087614 0.091814
0.585002 0.088142 0.091726
0.618857 0.088672 0.091642
0.652711 0.089203 0.091562
0.686565 0.089737 0.091486
0.720417 0.090273 0.091414
0.754268 0.090811 0.091346
0.788119 0.091352 0.091283
0.821968 0.091895 0.091224
0.855816 0.092440 0.091169
0.889663 0.092987 0.091119
0.920566 0.093488 0.091077
0.920566 0.093488 0.091077
0.920566 0.093488 0.091077
0.000000 0.111822 0.093713
0.000000 0.111822 0.093713
0.000000 0.111822 0.093713
0.010848 0.112277 0.093580
0.044717 0.112776 0.093437
0.078586 0.113277 0.093298
0.112454 0.113780 0.093163
0.146321 0.114284 0.093030
0.180188 0.114791 0.092902
0.214053 0.115299 0.092776
0.247918 0.115809 0.092655
0.281781 0.116321 0.092537
0.315644 0.116834 0.092422
0.349506 0.117350 0.092311
0.383367 0.117868 0.092204
0.417227 0.118387 0.092101
0.451086 0.118909 0.092001
0.484944 0.119432 0.091905
0.518802 0.119958 0.091814
0.552658 0.120486 0.091726
0.586513 0.121015 0.091642
0.620368 0.121547 0.091562
0.654221 0.122081 0.091486
0.688073 0.122617 0.091414
0.721925 0.123155 0.091346
0.755775 0.123696 0.091283
0.789624 0.124238 0.091224
0.823472 0.124783 0.091169
0.857319 0.125331 0.091119
0.891165 0.125880 0.091073
0.922067 0.126384 0.091035
0.922067 0.126384 0.091035
0.922067 0.126384 0.091035
0.000000 0.144664 0.093567
0.000000 0.144664 0.093567
0.000000 0.144664 0.093567
0.012374 0.145120 0.093437
0.046243 0.145621 0.093298
0.080110 0.146123 0.093163
0.113978 0.146628 0.093030
0.147844 0.147134 0.092902
0.181709 0.147642 0.092776
0.215574 0.148153 0.092655
0.249437 0.148664 0.092537
0.283300 0.149178 0.092422
0.317162 0.149694 0.092311
0.351023 0.150212 0.092204
0.384883 0.150731 0.092101
0.418742 0.151253 0.092001
0.452601 0.151776 0.091905
0.486458 0.152302 0.091814
0.520314 0.152829 0.091726
0.554169 0.153359 0.091642
0.588024 0.153891 0.091562
0.621877 0.154425 0.091486
0.655730 0.154961 0.091414
0.689581 0.155499 0.091346
0.723431 0.156039 0.091283
0.757280 0.156582 0.091224
0.791129 0.157127 0.091169
0.824976 0.157674 0.091119
0.858822 0.158224 0.091073
0.892666 0.158776 0.091032
0.923567 0.159282 0.090998
0.923567 0.159282 0.090998
0.923567 0.159282 0.090998
0.000000 0.177507 0.093425
0.000000 0.177507 0.093425
0.000000 0.177507 0.093425
0.013899 0.177964 0.093298
0.047767 0.178467 0.093163
0.081634 0.178972 0.093030
0.115500 0.179478 0.092902
0.149366 0.179986 0.092776
0.183230 0.180496 0.092655
0.217094 0.181008 0.092537
0.250957 0.181522 0.092422
0.284818 0.182038 0.092311
0.318679 0.182555 0.092204
0.352539 0.183075 0.092101
0.386399 0.183596 0.092001
0.420257 0.184120 0.091905
0.454114 0.184645 0.091814
0.487970 0.185173 0.091726
0.521826 0.185703 0.091642
0.555680 0.186235 0.091562
0.589533 0.186768 0.091486
0.623386 0.187304 0.091414
0.657237 0.187843 0.091346
0.691087 0.188383 0.091283
0.724937 0.188926 0.091224
0.758785 0.189471 0.091169
0.792632 0.190018 0.091119
0.826478 0.190568 0.091073
0.860323 0.191120 0.091032
0.894166 0.191674 0.090995
0.925066 0.192182 0.090966
0.925066 0.192182 0.090966
0.925066 0.192182 0.090966
0.000000 0.210352 0.093286
0.000000 0.210352 0.093286
0.000000 0.210352 0.093286
0.015423 0.210811 0.093163
0.049290 0.211315 0.093030
0.083156 0.211822 0.092902
0.117022 0.212330 0.092776
0.150886 0.212840 0.092655
0.184750 0.213352 0.092537
0.218613 0.213866 0.092422
0.252475 0.214381 0.092311
0.286336 0.214899 0.092204
0.320196 0.215419 0.092101
0.354055 0.215940 0.092001
0.387913 0.216464 0.091905
0.421770 0.216989 0.091814
0.455627 0.217517 0.091726
0.489482 0.218047 0.091642
0.523336 0.218578 0.091562
0.557190 0.219112 0.091486
0.591042 0.219648 0.091414
0.624893 0.220186 0.091346
0.658744 0.220727 0.091283
0.692593 0.221270 0.091224
0.726441 0.221815 0.091169
0.760288 0.222362 0.091119
0.794134 0.222911 0.091073
0.827979 0.223463 0.091032
0.861823 0.224018 0.090995
0.895665 0.224574 0.090963
0.926564 0.225085 0.090938
0.926564 0.225085 0.090938
0.926564 0.225085 0.090938
0.000000 0.243198 0.093151
0.000000 0.243198 0.093151
0.000000 0.243198 0.093151
0.016946 0.243659 0.093030
0.050813 0.244166 0.092902
0.084678 0.244674 0.092776
0.118543 0.245184 0.092655
0.152406 0.245696 0.092537
0.186269 0.246209 0.092422
0.220131 0.246725 0.092311
0.253992 0.247243 0.092204
0.287852 0.247762 0.092101
0.321711 0.248284 0.092001
0.355569 0.248807 0.091905
0.389427 0.249333 0.091814
0.423283 0.249861 0.091726
0.457138 0.250390 0.091642
0.490993 0.250922 0.091562
0.524846 0.251456 0.091486
0.558698 0.251992 0.091414
0.592550 0.252530 0.091346
0.626400 0.253071 0.091283
0.660249 0.253613 0.091224
0.694097 0.254158 0.091169
0.727944 0.254706 0.091119
0.761790 0.255255 0.091073
0.795635 0.255807 0.091032
0.829479 0.256361 0.090995
0.863322 0.256918 0.090963
0.897163 0.257477 0.090936
0.928575 0.258129 0.090679
0.928575 0.258129 0.090679
0.928575 0.258129 0.090679
0.000000 0.276047 0.093019
0.000000 0.276047 0.093019
0.000000 0.276047 0.093019
0.018469 0.276509 0.092902
0.052334 0.277017 0.092776
0.086199 0.277528 0.092655
0.120062 0.278039 0.092537
0.153925 0.278553 0.092422
0.187787 0.279069 0.092311
0.221648 0.279587 0.092204
0.255508 0.280106 0.092101
0.289367 0.280628 0.092001
0.323226 0.281151 0.091905
0.357083 0.281677 0.091814
0.390939 0.282204 0.091726
0.424794 0.282734 0.091642
0.458649 0.283266 0.091562
0.492502 0.283800 0.091486
0.526355 0.284336 0.091414
0.560206 0.284874 0.091346
0.594056 0.285414 0.091283
0.627905 0.285957 0.091224
0.661754 0.286502 0.091169
0.695601 0.287049 0.091119
0.729447 0.287599 0.091073
0.763291 0.288151 0.091032
0.797135 0.288705 0.090995
0.830978 0.289262 0.090963
0.864819 0.289821 0.090936
0.899302 0.290557 0.090618
0.931547 0.291436 0.089982
0.931547 0.291436 0.089982
0.931547 0.291436 0.089982
0.000000 0.308897 0.092891
0.000000 0.308897 0.092891
0.000000 0.308897 0.092891
0.019991 0.309361 0.092776
0.053855 0.309871 0.092655
0.087719 0.310383 0.092537
0.121582 0.310897 0.092422
0.155443 0.311413 0.092311
0.189304 0.311930 0.092204
0.223164 0.312450 0.092101
0.257024 0.312971 0.092001
0.290882 0.313495 0.091905
0.324739 0.314020 0.091814
0.358595 0.314548 0.091726
0.392451 0.315078 0.091642
0.426305 0.315610 0.091562
0.460158 0.316143 0.091486
0.494011 0.316679 0.091414
0.527862 0.317218 0.091346
0.561712 0.317758 0.091283
0.595562 0.318301 0.091224
0.629410 0.318846 0.091169
0.663257 0.319393 0.091119
0.697103 0.319943 0.091073
0.730948 0.320495 0.091032
0.764791 0.321049 0.090995
0.798634 0.321606 0.090963
0.832476 0.322165 0.090936
0.866958 0.322900 0.090618
0.902275 0.323864 0.089922
0.934519 0.324746 0.089290
0.934519 0.324746 0.089290
0.934519 0.324746 0.089290
0.000000 0.341749 0.092766
0.000000 0.341749 0.092766
0.000000 0.341749 0.092766
0.021511 0.342215 0.092655
0.055375 0.342727 0.092537
0.089238 0.343241 0.092422
0.123100 0.343756 0.092311
0.156961 0.344274 0.092204
0.190821 0.344794 0.092101
0.224680 0.345315 0.092001
0.258538 0.345839 0.091905
0.292395 0.346364 0.091814
0.326252 0.346892 0.091726
0.360107 0.347422 0.091642
0.393961 0.347953 0.091562
0.427815 0.348487 0.091486
0.461667 0.349023 0.091414
0.495518 0.349561 0.091346
0.529369 0.350102 0.091283
0.563218 0.350645 0.091224
0.597066 0.351190 0.091169
0.630913 0.351737 0.091119
0.664759 0.352286 0.091073
0.698604 0.352838 0.091032
0.732448 0.353393 0.090995
0.766290 0.353949 0.090963
0.800132 0.354509 0.090936
0.834614 0.355244 0.090618
0.869931 0.356208 0.089922
0.905246 0.357174 0.089231
0.937489 0.358059 0.088604
0.937489 0.358059 0.088604
0.937489 0.358059 0.088604
0.000000 0.374603 0.092644
0.000000 0.374603 0.092644
0.000000 0.374603 0.092644
0.023031 0.375071 0.092537
0.056894 0.375584 0.092422
0.090756 0.376100 0.092311
0.124617 0.376618 0.092204
0.158477 0.377137 0.092101
0.192336 0.377659 0.092001
0.226194 0.378182 0.091905
0.260052 0.378708 0.091814
0.293908 0.379236 0.091726
0.327763 0.379765 0.091642
0.361618 0.380297 0.091562
0.395471 0.380831 0.091486
0.429323 0.381367 0.091414
0.463175 0.381905 0.091346
0.497025 0.382446 0.091283
0.530874 0.382988 0.091224
0.564722 0.383533 0.091169
0.598569 0.384081 0.091119
0.632415 0.384630 0.091073
0.666260 0.385182 0.091032
0.700104 0.385736 0.090995
0.733947 0.386293 0.090963
0.767788 0.386852 0.090936
0.802271 0.387588 0.090618
0.837587 0.388552 0.089922
0.872902 0.389518 0.089231
0.908216 0.390487 0.088544
0.940459 0.391374 0.087922
0.940459 0.391374 0.087922
0.940459 0.391374 0.087922
0.000000 0.407459 0.092527
0.000000 0.407459 0.092527
0.000000 0.407459 0.092527
0.024550 0.407928 0.092422
0.058412 0.408444 0.092311
0.092273 0.408962 0.092204
0.126133 0.409481 0.092101
0.159992 0.410003 0.092001
0.193851 0.410526 0.091905
0.227708 0.411052 0.091814
0.261564 0.411579 0.091726
0.295419 0.412109 0.091642
0.329274 0.412641 0.091562
0.363127 0.413175 0.091486
0.396980 0.413711 0.091414
0.430831 0.414249 0.091346
0.464681 0.414789 0.091283
0.498530 0.415332 0.091224
0.532379 0.415877 0.091169
0.566226 0.416424 0.091119
0.600072 0.416974 0.091073
0.633916 0.417526 0.091032
0.667760 0.418080 0.090995
0.701603 0.418637 0.090963
0.735444 0.419196 0.090936
0.769927 0.419932 0.090618
0.805243 0.420895 0.089922
0.840559 0.421862 0.089231
0.875873 0.422830 0.088544
0.911185 0.423802 0.087863
0.943426 0.424691 0.087246
0.943426 0.424691 0.087246
0.943426 0.424691 0.087246
0.000000 0.440317 0.092412
0.000000 0.440317 0.092412
0.000000 0.440317 0.092412
0.026068 0.440788 0.092311
0.059929 0.441305 0.092204
0.093789 0.441825 0.092101
0.127649 0.442346 0.092001
0.161507 0.442870 0.091905
0.195364 0.443395 0.091814
0.229220 0.443923 0.091726
0.263076 0.444453 0.091642
0.296930 0.444985 0.091562
0.330783 0.445518 0.091486
0.364636 0.446054 0.091414
0.398487 0.446593 0.091346
0.432337 0.447133 0.091283
0.466187 0.447676 0.091224
0.500035 0.448221 0.091169
0.533882 0.448768 0.091119
0.567728 0.449318 0.091073
0.601573 0.449870 0.091032
0.635416 0.450424 0.090995
0.669259 0.450981 0.090963
0.703101 0.451540 0.090936
0.737583 0.452275 0.090618
0.772900 0.453239 0.089922
0.808215 0.454205 0.089231
0.843529 0.455174 0.088544
0.878842 0.456146 0.087863
0.914153 0.457120 0.087187
0.946393 0.458012 0.086575
0.946393 0.458012 0.086575
0.946393 0.458012 0.086575
0.000000 0.473176 0.092302
0.000000 0.473176 0.092302
0.000000 0.473176 0.092302
0.027586 0.473649 0.092204
0.061446 0.474169 0.092101
0.095305 0.474690 0.092001
0.129163 0.475214 0.091905
0.163020 0.475739 0.091814
0.196877 0.476267 0.091726
0.230732 0.476797 0.091642
0.264586 0.477328 0.091562
0.298440 0.477862 0.091486
0.332292 0.478398 0.091414
0.366143 0.478936 0.091346
0.399994 0.479477 0.091283
0.433843 0.480020 0.091224
0.467691 0.480565 0.091169
0.501538 0.481112 0.091119
0.535384 0.481661 0.091073
0.569229 0.482213 0.091032
0.603073 0.482768 0.090995
0.636915 0.483324 0.090963
0.670757 0.483884 0.090936
0.705239 0.484619 0.090618
0.740556 0.485583 0.089922
0.775871 0.486549 0.089231
0.811185 0.487518 0.088544
0.846498 0.488489 0.087863
0.881809 0.489464 0.087187
0.917120 0.490441 0.086517
0.949358 0.491336 0.085909
0.949358 0.491336 0.085909
0.949358 0.491336 0.085909
0.000000 0.506038 0.092195
0.000000 0.506038 0.092195
0.000000 0.506038 0.092195
0.029102 0.506512 0.092101
0.062961 0.507034 0.092001
0.096819 0.507557 0.091905
0.130677 0.508083 0.091814
0.164533 0.508611 0.091726
0.198388 0.509140 0.091642
0.232243 0.509672 0.091562
0.266096 0.510206 0.091486
0.299948 0.510742 0.091414
0.333800 0.511280 0.091346
0.367650 0.511821 0.091283
0.401499 0.512363 0.091224
0.435347 0.512908 0.091169
0.469194 0.513456 0.091119
0.503040 0.514005 0.091073
0.536885 0.514557 0.091032
0.570729 0.515111 0.090995
0.604572 0.515668 0.090963
0.638413 0.516227 0.090936
0.672896 0.516963 0.090618
0.708212 0.517927 0.089922
0.743527 0.518893 0.089231
0.778841 0.519862 0.088544
0.814154 0.520833 0.087863
0.849466 0.521808 0.087187
0.884776 0.522785 0.086517
0.920085 0.523765 0.085852
0.952322 0.524662 0.085249
0.952322 0.524662 0.085249
0.952322 0.524662 0.085249
0.000000 0.538901 0.092092
0.000000 0.538901 0.092092
0.000000 0.538901 0.092092
0.030617 0.539378 0.092001
0.064476 0.539901 0.091905
0.098333 0.540427 0.091814
0.132189 0.540954 0.091726
0.166044 0.541484 0.091642
0.199899 0.542016 0.091562
0.233752 0.542550 0.091486
0.267605 0.543086 0.091414
0.301456 0.543624 0.091346
0.335306 0.544164 0.091283
0.369155 0.544707 0.091224
0.403004 0.545252 0.091169
0.436851 0.545799 0.091119
0.470697 0.546349 0.091073
0.504541 0.546901 0.091032
0.538385 0.547455 0.090995
0.572228 0.548012 0.090963
0.606069 0.548571 0.090936
0.640552 0.549307 0.090618
0.675868 0.550270 0.089922
0.711184 0.551237 0.089231
0.746498 0.552205 0.088544
0.781810 0.553177 0.087863
0.817122 0.554151 0.087187
0.852432 0.555128 0.086517
0.887741 0.556108 0.085852
0.923048 0.557091 0.085192
0.955284 0.557991 0.084595
0.955284 0.557991 0.084595
0.955284 0.557991 0.084595
0.001218 0.571767 0.091993
0.001218 0.571767 0.091993
0.001218 0.571767 0.091993
0.032132 0.572245 0.091905
0.065989 0.572770 0.091814
0.099845 0.573298 0.091726
0.133701 0.573828 0.091642
0.167555 0.574360 0.091562
0.201408 0.574893 0.091486
0.235261 0.575429 0.091414
0.269112 0.575968 0.091346
0.302962 0.576508 0.091283
0.336812 0.577051 0.091224
0.370660 0.577596 0.091169
0.404507 0.578143 0.091119
0.438353 0.578693 0.091073
0.472198 0.579245 0.091032
0.506041 0.579799 0.090995
0.539884 0.580356 0.090963
0.573726 0.580915 0.090936
0.608208 0.581650 0.090618
0.643525 0.582614 0.089922
0.678840 0.583580 0.089231
0.714154 0.584549 0.088544
0.749467 0.585521 0.087863
0.784778 0.586495 0.087187
0.820088 0.587472 0.086517
0.855397 0.588452 0.085852
0.890705 0.589435 0.085192
0.926011 0.590421 0.084538
0.958246 0.591323 0.083946
0.958246 0.591323 0.083946
0.958246 0.591323 0.083946
0.002732 0.604634 0.091897
0.002732 0.604634 0.091897
0.002732 0.604634 0.091897
0.033645 0.605114 0.091814
0.067502 0.605642 0.091726
0.101357 0.606172 0.091642
0.135211 0.606703 0.091562
0.169065 0.607237 0.091486
0.202917 0.607773 0.091414
0.236768 0.608311 0.091346
0.270619 0.608852 0.091283
0.304468 0.609395 0.091224
0.338316 0.609940 0.091169
0.372163 0.610487 0.091119
0.406009 0.611036 0.091073
0.439854 0.611588 0.091032
0.473698 0.612143 0.090995
0.507540 0.612699 0.090963
0.541382 0.613259 0.090936
0.575864 0.613994 0.090618
0.611181 0.614958 0.089922
0.646496 0.615924 0.089231
0.681810 0.616893 0.088544
0.717123 0.617864 0.087863
0.752434 0.618839 0.087187
0.787745 0.619816 0.086517
0.823053 0.620796 0.085852
0.858361 0.621779 0.085192
0.893667 0.622764 0.084538
0.928972 0.623753 0.083890
0.961205 0.624659 0.083303
0.961205 0.624659 0.083303
0.961205 0.624659 0.083303
0.004246 0.637504 0.091806
0.004246 0.637504 0.091806
0.004246 0.637504 0.091806
0.035158 0.637986 0.091726
0.069013 0.638515 0.091642
0.102868 0.639047 0.091562
0.136721 0.639581 0.091486
0.170573 0.640117 0.091414
0.204425 0.640655 0.091346
0.238275 0.641196 0.091283
0.272124 0.641738 0.091224
0.305972 0.642283 0.091169
0.339819 0.642831 0.091119
0.373665 0.643380 0.091073
0.407510 0.643932 0.091032
0.441354 0.644486 0.090995
0.475197 0.645043 0.090963
0.509038 0.645602 0.090936
0.543521 0.646338 0.090618
0.578837 0.647302 0.089922
0.614152 0.648268 0.089231
0.649466 0.649237 0.088544
0.684779 0.650208 0.087863
0.720091 0.651183 0.087187
0.755401 0.652160 0.086517
0.790710 0.653140 0.085852
0.826017 0.654122 0.085192
0.861323 0.655108 0.084538
0.896628 0.656097 0.083890
0.931931 0.657089 0.083248
0.964163 0.657997 0.082667
0.964163 0.657997 0.082667
0.964163 0.657997 0.082667
0.005758 0.670375 0.091718
0.005758 0.670375 0.091718
0.005758 0.670375 0.091718
0.036669 0.670859 0.091642
0.070524 0.671391 0.091562
0.104377 0.671925 0.091486
0.138230 0.672461 0.091414
0.172081 0.672999 0.091346
0.205931 0.673539 0.091283
0.239780 0.674082 0.091224
0.273629 0.674627 0.091169
0.307476 0.675174 0.091119
0.341322 0.675724 0.091073
0.375166 0.676276 0.091032
0.409010 0.676830 0.090995
0.442853 0.677387 0.090963
0.476694 0.677946 0.090936
0.511177 0.678682 0.090618
0.546493 0.679645 0.089922
0.581809 0.680612 0.089231
0.617123 0.681580 0.088544
0.652435 0.682552 0.087863
0.687747 0.683526 0.087187
0.723057 0.684503 0.086517
0.758366 0.685483 0.085852
0.793673 0.686466 0.085192
0.828980 0.687452 0.084538
0.864284 0.688441 0.083890
0.899587 0.689433 0.083248
0.934889 0.690427 0.082611
0.967120 0.691339 0.082036
0.967120 0.691339 0.082036
0.967120 0.691339 0.082036
0.007270 0.703249 0.091634
0.007270 0.703249 0.091634
0.007270 0.703249 0.091634
0.038180 0.703735 0.091562
0.072033 0.704268 0.091486
0.105886 0.704804 0.091414
0.139737 0.705343 0.091346
0.173587 0.705883 0.091283
0.207437 0.706426 0.091224
0.241285 0.706971 0.091169
0.275132 0.707518 0.091119
0.308978 0.708068 0.091073
0.342823 0.708620 0.091032
0.376666 0.709174 0.090995
0.410509 0.709731 0.090963
0.444351 0.710290 0.090936
0.478833 0.711025 0.090618
0.514150 0.711989 0.089922
0.549465 0.712955 0.089231
0.584779 0.713924 0.088544
0.620092 0.714896 0.087863
0.655403 0.715870 0.087187
0.690713 0.716847 0.086517
0.726022 0.717827 0.085852
0.761330 0.718810 0.085192
0.796636 0.719796 0.084538
0.831940 0.720784 0.083890
0.867244 0.721776 0.083248
0.902546 0.722771 0.082611
0.937846 0.723769 0.081981
0.970075 0.724684 0.081411
0.970075 0.724684 0.081411
0.970075 0.724684 0.081411
0.008780 0.736125 0.091555
0.008780 0.736125 0.091555
0.008780 0.736125 0.091555
0.039690 0.736612 0.091486
0.073542 0.737148 0.091414
0.107393 0.737686 0.091346
0.141244 0.738227 0.091283
0.175093 0.738770 0.091224
0.208941 0.739315 0.091169
0.242788 0.739862 0.091119
0.276634 0.740411 0.091073
0.310479 0.740963 0.091032
0.344323 0.741518 0.090995
0.378165 0.742074 0.090963
0.412007 0.742634 0.090936
0.446489 0.743369 0.090618
0.481806 0.744333 0.089922
0.517121 0.745299 0.089231
0.552435 0.746268 0.088544
0.587748 0.747239 0.087863
0.623059 0.748214 0.087187
0.658370 0.749191 0.086517
0.693678 0.750171 0.085852
0.728986 0.751154 0.085192
0.764292 0.752139 0.084538
0.799597 0.753128 0.083890
0.834900 0.754120 0.083248
0.870202 0.755115 0.082611
0.905502 0.756113 0.081981
0.940801 0.757115 0.081357
0.973029 0.758032 0.080793
0.973029 0.758032 0.080793
0.973029 0.758032 0.080793
0.010290 0.769002 0.091479
0.010290 0.769002 0.091479
0.010290 0.769002 0.091479
0.041198 0.769492 0.091414
0.075050 0.770030 0.091346
0.108900 0.770571 0.091283
0.142749 0.771113 0.091224
0.176597 0.771658 0.091169
0.210444 0.772206 0.091119
0.244290 0.772755 0.091073
0.278135 0.773307 0.091032
0.311979 0.773861 0.090995
0.345822 0.774418 0.090963
0.379663 0.774977 0.090936
0.414146 0.775713 0.090618
0.449462 0.776677 0.089922
0.484777 0.777643 0.089231
0.520091 0.778612 0.088544
0.555404 0.779583 0.087863
0.590716 0.780558 0.087187
0.626026 0.781535 0.086517
0.661335 0.782515 0.085852
0.696642 0.783497 0.085192
0.731948 0.784483 0.084538
0.767253 0.785472 0.083890
0.802556 0.786464 0.083248
0.837858 0.787459 0.082611
0.873158 0.788457 0.081981
0.908457 0.789458 0.081357
0.943754 0.790463 0.080740
0.975981 0.791383 0.080182
0.975981 0.791383 0.080182
0.975981 0.791383 0.080182
0.011798 0.801882 0.091408
0.011798 0.801882 0.091408
0.011798 0.801882 0.091408
0.042706 0.802374 0.091346
0.076556 0.802914 0.091283
0.110405 0.803457 0.091224
0.144254 0.804002 0.091169
0.178101 0.804549 0.091119
0.211947 0.805099 0.091073
0.245791 0.805651 0.091032
0.279635 0.806205 0.090995
0.313478 0.806762 0.090963
0.347319 0.807321 0.090936
0.381802 0.808057 0.090618
0.417118 0.809020 0.089922
0.452434 0.809987 0.089231
0.487748 0.810955 0.088544
0.523060 0.811927 0.087863
0.558372 0.812901 0.087187
0.593682 0.813878 0.086517
0.628991 0.814858 0.085852
0.664298 0.815841 0.085192
0.699605 0.816827 0.084538
0.734909 0.817816 0.083890
0.770212 0.818808 0.083248
0.805514 0.819802 0.082611
0.840815 0.820801 0.081981
0.876113 0.821802 0.081357
0.911411 0.822807 0.080740
0.946706 0.823815 0.080129
0.978931 0.824738 0.079577
0.978931 0.824738 0.079577
0.978931 0.824738 0.079577
0.013306 0.834765 0.091341
0.013306 0.834765 0.091341
0.013306 0.834765 0.091341
0.044212 0.835258 0.091283
0.078062 0.835801 0.091224
0.111910 0.836346 0.091169
0.145757 0.836893 0.091119
0.179603 0.837443 0.091073
0.213448 0.837995 0.091032
0.247291 0.838549 0.090995
0.281134 0.839106 0.090963
0.314976 0.839665 0.090936
0.349458 0.840400 0.090618
0.384775 0.841364 0.089922
0.420090 0.842330 0.089231
0.455404 0.843299 0.088544
0.490717 0.844271 0.087863
0.526028 0.845245 0.087187
0.561338 0.846222 0.086517
0.596647 0.847202 0.085852
0.631955 0.848185 0.085192
0.667261 0.849171 0.084538
0.702565 0.850159 0.083890
0.737869 0.851151 0.083248
0.773171 0.852146 0.082611
0.808471 0.853144 0.081981
0.843770 0.854146 0.081357
0.879067 0.855150 0.080740
